X:579
T: Toujours la la (277), S. 589
N: T0467
O: Luxemburg
S: Singendes Volk, Esch-Alzette, 1937 posth.]
N: Blascheid, hhh Nikolaus Perl, 1902
R: ???, Abzhllied]
M: 3/4
L: 1/8
K: G
DD | G2G2BB | G2G2
A2 | A2A2BA | G2G2
DD | G2G2BB | G2G2
BB | A2A2d2 | B2z2
d2 | BBB2
d2 | BBB2
d2 | d2c2e2 | e2d2
d2 | BBB2
d2 | BBB2
d2 | d2c2dc | B2z2

@@@ Tune index: 8633
